X:2296
T:Gold Ring Schottische. GHW.038
O:england
M:4/4
L:1/8
Q:120
S:George H.Watson,MS,Swanton Abbott,Norfolk,1850-1880
R:Schottische
A:Norfolk
K:G
(3(def)|.g2 .b2 e2 g>e|d>ed>B G2 A>G|F>GA>B c>de>f|g>fg>e d2 (3(def)|
.g2 .b2 e2 g>e|d>ed>B G2 (3(ABA)|1 F>Af>e d>cA>B|G2B2G2:|2 F>Af>e d>de>f
|g2g2g2||
K:F
|:A>B|c>fc>A F>Ac>A|B2 G2G2 G>A|B>ge>c =B>cd>e|f2 A2A2 A>B|
c>gc>A F>Ac>A|B2 g2g2 g>a|b>ag>f e>gd>e|f2f2f2:|
